X:1
T:Title
%%score { 1 | 2 }
L:1/8
M:4/4
K:D
V:1 treble nm="Grand Piano"
V:2 bass 
V:1
 z4 z2[Q:1/4=100] [FA]2 | [FA]3 [GB] [FA]2 [DF]2 | [CF]3 [CE] D2 E2 | F3 [GB] [FA]2 [DF]2 | %4
 [CE]6 [DF]2 | [FA]3 [GB] [FA]2 F2 |[M:9/8] G2 A- A B2- B B2 |[M:4/4] A2 F2 [CE]3 [A,D] | %8
[M:3/4] [A,D]6 |[M:1/4] [FA]2 |[M:4/4] [Fd]3 [Fd] [Gd]2 [GB]2 | [Fd]6 B2 | [FA]3 F FE D2 | %13
 [CA]6 [EG]2 | [DF]3 [EG] [FA]2 [FA]2 |[M:9/8] d3 c B2- B B2 |[M:4/4] A2 F2 [CE]3 D |[M:3/4] D6 |] %18
V:2
 z4 z2 [D,D]2 | [D,D]3 [D,D] [D,D]2 [D,A,]2 | [A,,A,]3 [A,,G,] [D,F,A,]2 [D,G,A,]2 | %3
 [D,A,D]3 [D,D] [D,D]2 [D,A,]2 | [A,,A,]6 [D,A,]2 | [D,D]3 [D,D] [D,D]2 [D,=CD]2 | %6
[M:9/8] [D,B,D]2 [D,F,D]- [D,F,D][K:treble] [G,D]2- [G,D] [^G,D=F]2 | %7
[M:4/4] [A,DF]2 [A,D]2[K:bass] [A,,G,]3 [D,F,] |[M:3/4] [D,F,]6 |[M:1/4] [D,D]2 | %10
[M:4/4] [D,A,]3 [D,^A,] [D,B,]2 [D,D]2 | [D,A,]6 [DG]2 | [D,D]3 [D,A,D] [D,A,D][C,A,] [B,,^G,]2 | %13
 [A,,E,A,]6 [A,,A,]2 | [D,A,]3 [D,A,] [D,D]2 [D,D]2 | %15
[M:9/8] [F,A,F]3 [F,^A,E][K:treble] [G,B,D]2- [G,B,D] [^G,D=F]2 | %16
[M:4/4] [A,DF]2 [A,D]2[K:bass] [A,,G,]3 [D,F,A,] |[M:3/4] [D,F,A,]6 |] %18

